X:24
T:O.P.? Hornpipe. LW.024
T:Liddell's Hp,aka. LW.024
T:Roper's Hp,aka. LW.024
N:Title uncertain, very faint
M:4/4
L:1/8
Q:1/2=96
B:Lionel Winship MS, 1833, Wark, Northumberland
Z:Village Music Project 2017 Anne Wride
K:G
dc | BGBd g2fg |afge d2ef | gfgf ebag | f2d2d2 dc |
BGBd g2fg | afge d2cB | cedc BAGF | G2G2G2 ||
fg |afdf adfd | bgeg bgeg | gfgf ebag | f2d2d2 gf |
egdg cgBg | egdg cgBg | cedc BAGF | G2G2G2 |]

